X:1
T: Lady Ann Wharton Duff's Strathspey
C:William Marshall
R:Strathspey
Q: 128
K:Bb
M:4/4
L:1/16
|:B,3F GFED C3D E2G2|B,3F GFED F3G B2d2|f2d2 B2C2 D3D E2G2|F2B2 A2c2 B2D2 F2D2|
B,3F GFED C3D E2G2|B,3F GFED F3G B2d2|f2d2 B2C2 D3D E2G2|F2B2 A2c2 B2d2 c2e2|
d3f edcB g3c e2g2|d3f edcB f2b2 B2D2|E2c2 D2B2 C3D E2G2|F2B2 A2c2 B2d2 c2e2|
d3f edcB g3c e2g2|d3f edcB f2b2 B2D2|E2c2 D2B2 C3D E2G2|F2B2 A2c2 B2d2 B4:|
